styles/emoji-one/1f4a5.svg

<svg xmlns="http://www.w3.org/2000/svg" viewBox="0 0 64 64"><path fill="#ef4e16" d="M44.703 35.415L64 24.713l-21.65.941 6.427-13.285-11.727 8.345 1.446-18.323-8.533 15.1L17.12 0l5.518 21.791-19.269-6.395 15.356 14.026L0 33.07l17.951 4.08L7.883 55.12l16.475-9.95L25.04 64l6.747-17.201 9.078 13.611-.505-16.35 15.634 5.97z"/><path fill="#ffce31" d="M39.1 33.784l11.3-5.239-12.536-.375 3.366-7.447-6.643 3.804.246-10.134-4.458 8.449-6.713-8.632 2.933 10.88-11.186-2.835 9.141 7.885-11.354 2.672L23.587 35.2l-7.324 11.24 11.231-7.607.307 9.891 4.04-9.04 4.564 6.753-.08-8.18 8.209 3.597z"/><path fill="#fff" d="M34.887 32.448l4.784-2.218-5.301-.16 1.418-3.153-2.811 1.612.103-4.289-1.89 3.575-2.838-3.655 1.242 4.607-4.736-1.2 3.87 3.34-4.807 1.133 4.4 1.01-3.101 4.758 4.755-3.223.125 4.189 1.713-3.826 1.931 2.86-.034-3.468 3.48 1.525z"/></svg>

<svg xmlns="http://www.w3.org/2000/svg" viewBox="0 0 64 64" enable-background="new 0 0 64 64"><path fill="#ef4e16" d="M44.703 35.415 64 24.713 42.35 25.654 48.777 12.369 37.05 20.714 38.496 2.391 29.963 17.491 17.12 0 22.638 21.791 3.369 15.396 18.725 29.422 0 33.07 17.951 37.15 7.883 55.12 24.358 45.17 25.04 64 31.787 46.799 40.865 60.41 40.36 44.06 55.994 50.03z"/><path fill="#ffce31" d="m39.1 33.784l11.3-5.239-12.536-.375 3.366-7.447-6.643 3.804.246-10.134-4.458 8.449-6.713-8.632 2.933 10.88-11.186-2.835 9.141 7.885-11.354 2.672 10.391 2.388-7.324 11.24 11.231-7.607.307 9.891 4.04-9.04 4.564 6.753-.08-8.18 8.209 3.597z"/><path fill="#fff" d="m34.887 32.448l4.784-2.218-5.301-.16 1.418-3.153-2.811 1.612.103-4.289-1.89 3.575-2.838-3.655 1.242 4.607-4.736-1.2 3.87 3.34-4.807 1.133 4.4 1.01-3.101 4.758 4.755-3.223.125 4.189 1.713-3.826 1.931 2.86-.034-3.468 3.48 1.525z"/></svg>
